Adwaita++-Light/panel/16/firewall-applet-error.svg

<svg height="16" width="16" xmlns="http://www.w3.org/2000/svg">
  <path d="m7.9355469 1.0117188-5.8027344 2.0371093c-.0792.0279993-.1328125.4157395-.1328125.5 0 8.4514559 5.9692063 11.4478069 6 11.4511719 0 0 6-2.999716 6-11.4511719 0-.0842605-.053955-.4720007-.132812-.5l-5.8027349-2.0371093c-.042857-.01513715-.0860495-.01513715-.1289062 0zm.0644531 2.0976562 3.851562 1.3515625c-.307038 4.7277052-2.4927297 7.1730765-3.8124995 8.1386715-.4338931-.334622-.9557135-.764794-1.5097656-1.433593-1.128325-1.3620081-2.1586736-3.5623375-2.3730469-6.7070316z" fill="#444"/>
  <path d="m7.9348571 1.0113528-5.8026 1.7381468c-.0792.0279993-.1322571.4148278-.1322571.4990883 0 2.0756263.5479714 4.4759576 1.5033428 6.5837832.7749429 1.7097099 2.1684857 3.9899069 4.4058 5.1457539.0291429.014.06.021875.0908572.021875.030857 0 .061714-.0079.09-.02187 2.238-1.155847 3.631714-3.436044 4.406571-5.1457539.955715-2.1087056 1.503429-4.5084243 1.503429-6.5837882 0-.0842605-.053143-.471089-.132-.4990883l-5.8028572-1.7381468c-.042857-.0151371-.087429-.0151371-.1302857 0z" fill="none"/>
  <path d="m7 4.0117188v4.0001406h2v-4.0001406zm1 4.9884218c-.5522847 0-1 .4477153-1 1.0000004 0 .552284.4477153 1 1 1s1-.447716 1-1c0-.5522851-.4477153-1.0000004-1-1.0000004z" fill="#4285f4"/>
</svg>

<svg xmlns="http://www.w3.org/2000/svg" width="16" height="16" version="1">
 <defs>
  <style id="current-color-scheme" type="text/css">
   .ColorScheme-Text { color:#444444; } .ColorScheme-Highlight { color:#4285f4; }
  </style>
 </defs>
 <path style="fill:currentColor" class="ColorScheme-Text" d="M 7.9355469 1.0117188 L 2.1328125 3.0488281 C 2.0536125 3.0768274 2 3.4645676 2 3.5488281 C 2 12.000284 7.9692063 14.996635 8 15 C 8 15 14 12.000284 14 3.5488281 C 14 3.4645676 13.946045 3.0768274 13.867188 3.0488281 L 8.0644531 1.0117188 C 8.0215961 0.99658165 7.9784036 0.99658165 7.9355469 1.0117188 z M 8 3.109375 L 11.851562 4.4609375 C 11.544524 9.1886427 9.3588323 11.634014 8.0390625 12.599609 C 7.6051694 12.264987 7.083349 11.834815 6.5292969 11.166016 C 5.4009719 9.8040079 4.3706233 7.6036785 4.15625 4.4589844 L 8 3.109375 z"/>
 <path style="fill:none" class="ColorScheme-Text" d="m 7.9348571,1.0113528 -5.8026,1.7381468 C 2.0530571,2.7774989 2,3.1643274 2,3.2485879 2,5.3242142 2.5479714,7.7245455 3.5033428,9.8323711 4.2782857,11.542081 5.6718285,13.822278 7.9091428,14.978125 7.9382857,14.992125 7.9691428,15 8,15 c 0.030857,0 0.061714,-0.0079 0.09,-0.02187 2.238,-1.155847 3.631714,-3.436044 4.406571,-5.1457539 C 13.452286,7.7236705 14,5.3239518 14,3.2485879 14,3.1643274 13.946857,2.7774989 13.868,2.7494996 L 8.0651428,1.0113528 c -0.042857,-0.0151371 -0.087429,-0.0151371 -0.1302857,0 z"/>
 <path style="fill:currentColor" class="ColorScheme-Highlight" d="m 7,4.0117188 0,4.0001406 2,0 0,-4.0001406 z m 1,4.9884218 c -0.5522847,0 -1,0.4477153 -1,1.0000004 0,0.552284 0.4477153,1 1,1 0.5522847,0 1,-0.447716 1,-1 C 9,9.4478559 8.5522847,9.0001406 8,9.0001406 Z"/>
</svg>
